;FLAVOR:Marlin
;TIME:7666
;Filament used: 7.18223m
;Layer height: 0.1
;MINX:58.678
;MINY:95.348
;MINZ:0.3
;MAXX:191.045
;MAXY:159.652
;MAXZ:10
;Generated with Cura_SteamEngine 4.13.0
M140 S60
M105
M190 S60
M104 S190
M105
M109 S190
M82 ;absolute extrusion mode
G21 ;metric values
G90 ;absolute positioning
M82 ;set extruder to absolute mode
M107 ;start with the fan off
G28 X0 Y0 ;move X/Y to min endstops
M300 S1318 P266
G28 Z0 ;move Z to min endstops
G0 Z0.2
G92 E0 ;zero the extruded length
G1 X40 E25 F400 ; Extrude 25mm of filament in a 4cm line. Reduce speed (F) if you have a nozzle smaller than 0.4mm!
G92 E0 ;zero the extruded length again
G1 E-1 F500 ; Retract a little
G1 X80 F4000 ; Quickly wipe away from the filament line
M117 ; Printing…
G5
G92 E0
G92 E0
G1 F1500 E-6.5
;LAYER_COUNT:98
;LAYER:0
M107
G0 F3600 X64.505 Y97.885 Z0.3
;TYPE:SKIRT
G1 F1500 E0
G1 F3000 X64.857 Y97.655 E0.02098
G1 X65.66 Y97.161 E0.06801
G1 X66.353 Y96.782 E0.10742
G1 X66.753 Y96.602 E0.1293
G1 X67.624 Y96.24 E0.17636
G1 X68.368 Y95.975 E0.21576
G1 X68.791 Y95.86 E0.23763
G1 X69.704 Y95.64 E0.28449
G1 X70.016 Y95.571 E0.30043
G1 X70.94 Y95.444 E0.34696
G1 X71.864 Y95.372 E0.3932
G1 X72.47 Y95.348 E0.42346
G1 X177.253 Y95.348 E5.6511
G1 X177.86 Y95.372 E5.68141
G1 X178.782 Y95.444 E5.72755
G1 X179.103 Y95.475 E5.74364
G1 X180.027 Y95.641 E5.79047
G1 X180.94 Y95.862 E5.83734
G1 X181.697 Y96.086 E5.87672
G1 X182.1 Y96.241 E5.89827
G1 X182.973 Y96.604 E5.94544
G1 X183.686 Y96.944 E5.98484
G1 X184.063 Y97.161 E6.00655
G1 X184.86 Y97.651 E6.05322
G1 X185.511 Y98.098 E6.09262
G1 X185.848 Y98.371 E6.11426
G1 X186.565 Y98.985 E6.16135
G1 X187.138 Y99.529 E6.20077
G1 X187.429 Y99.852 E6.22246
G1 X188.039 Y100.568 E6.26939
G1 X188.52 Y101.194 E6.30877
G1 X188.748 Y101.544 E6.32961
G1 X189.232 Y102.332 E6.37575
G1 X189.611 Y103.025 E6.41516
G1 X189.789 Y103.421 E6.43682
G1 X190.153 Y104.297 E6.48415
G1 X190.419 Y105.041 E6.52356
G1 X190.534 Y105.467 E6.54558
G1 X190.753 Y106.378 E6.59232
G1 X190.799 Y106.581 E6.60271
G1 X190.948 Y107.598 E6.65399
G1 X191.021 Y108.518 E6.70003
G1 X191.045 Y109.135 E6.73084
G1 X191.045 Y145.863 E8.5632
G1 X191.021 Y146.48 E8.59401
G1 X190.948 Y147.4 E8.64005
G1 X190.91 Y147.766 E8.65841
G1 X190.753 Y148.626 E8.70203
G1 X190.534 Y149.535 E8.74867
G1 X190.31 Y150.292 E8.78806
G1 X190.154 Y150.701 E8.8099
G1 X189.79 Y151.577 E8.85722
G1 X189.45 Y152.29 E8.89663
G1 X189.23 Y152.672 E8.91863
G1 X188.737 Y153.473 E8.96555
G1 X188.289 Y154.124 E9.00498
G1 X188.02 Y154.457 E9.02633
G1 X187.408 Y155.172 E9.07329
G1 X186.864 Y155.745 E9.11271
G1 X186.548 Y156.031 E9.13397
G1 X185.842 Y156.634 E9.18029
G1 X185.216 Y157.116 E9.21971
G1 X184.863 Y157.346 E9.24073
G1 X184.065 Y157.837 E9.28747
G1 X183.373 Y158.216 E9.32684
G1 X182.973 Y158.396 E9.34872
G1 X182.1 Y158.759 E9.39589
G1 X181.356 Y159.025 E9.43531
G1 X180.93 Y159.14 E9.45732
G1 X180.016 Y159.36 E9.50422
G1 X179.706 Y159.429 E9.52007
G1 X178.783 Y159.556 E9.56655
G1 X177.86 Y159.628 E9.61274
G1 X177.253 Y159.652 E9.64305
G1 X72.47 Y159.652 E14.87069
G1 X71.863 Y159.628 E14.901
G1 X70.94 Y159.556 E14.94719
G1 X70.619 Y159.525 E14.96328
G1 X69.699 Y159.36 E15.00991
G1 X68.788 Y159.14 E15.05666
G1 X68.031 Y158.916 E15.09605
G1 X67.621 Y158.759 E15.11795
G1 X66.749 Y158.396 E15.16508
G1 X66.037 Y158.056 E15.20444
G1 X65.66 Y157.839 E15.22614
G1 X64.857 Y157.345 E15.27318
G1 X64.206 Y156.897 E15.3126
G1 X63.872 Y156.627 E15.33403
G1 X63.157 Y156.015 E15.38098
G1 X62.584 Y155.471 E15.4204
G1 X62.293 Y155.148 E15.44209
G1 X61.693 Y154.444 E15.48824
G1 X61.211 Y153.818 E15.52766
G1 X60.986 Y153.473 E15.54821
G1 X60.493 Y152.672 E15.59513
G1 X60.114 Y151.98 E15.63449
G1 X59.935 Y151.58 E15.65636
G1 X59.573 Y150.71 E15.70337
G1 X59.306 Y149.967 E15.74276
G1 X59.189 Y149.531 E15.76528
G1 X58.965 Y148.596 E15.81325
G1 X58.82 Y147.82 E15.85263
G1 X58.774 Y147.392 E15.87411
G1 X58.702 Y146.478 E15.91985
G1 X58.678 Y145.865 E15.95046
G1 X58.678 Y109.137 E17.78282
G1 X58.702 Y108.524 E17.81343
G1 X58.774 Y107.61 E17.85917
G1 X58.812 Y107.24 E17.87773
G1 X58.969 Y106.379 E17.92139
G1 X59.191 Y105.458 E17.96866
G1 X59.415 Y104.701 E18.00804
G1 X59.573 Y104.29 E18.03001
G1 X59.935 Y103.42 E18.07702
G1 X60.274 Y102.707 E18.11641
G1 X60.493 Y102.328 E18.13825
G1 X60.986 Y101.527 E18.18517
G1 X61.434 Y100.876 E18.2246
G1 X61.699 Y100.548 E18.24563
G1 X62.31 Y99.833 E18.29256
G1 X62.853 Y99.259 E18.33198
G1 X63.176 Y98.968 E18.35367
G1 X63.88 Y98.367 E18.39985
G1 X64.505 Y97.885 E18.43922
G0 F3600 X65.067 Y97.996
G1 F3000 X65.87 Y97.502 E18.48626
G1 X66.545 Y97.134 E18.52462
G1 X66.907 Y96.972 E18.5444
G1 X67.778 Y96.61 E18.59146
G1 X68.503 Y96.352 E18.62985
G1 X68.884 Y96.249 E18.64954
G1 X69.797 Y96.029 E18.6964
G1 X70.095 Y95.964 E18.71161
G1 X70.971 Y95.842 E18.75574
G1 X71.895 Y95.77 E18.80198
G1 X72.47 Y95.748 E18.83068
G1 X177.253 Y95.748 E24.05833
G1 X177.829 Y95.77 E24.08709
G1 X178.751 Y95.842 E24.13323
G1 X179.057 Y95.873 E24.14857
G1 X179.933 Y96.03 E24.19297
G1 X180.846 Y96.251 E24.23984
G1 X181.583 Y96.47 E24.27819
G1 X181.946 Y96.61 E24.2976
G1 X182.819 Y96.973 E24.34477
G1 X183.513 Y97.305 E24.38316
G1 X183.854 Y97.502 E24.4028
G1 X184.651 Y97.992 E24.44948
G1 X185.284 Y98.428 E24.48783
G1 X185.588 Y98.675 E24.50737
G1 X186.305 Y99.289 E24.55446
G1 X186.863 Y99.819 E24.59286
G1 X187.125 Y100.111 E24.61243
G1 X187.735 Y100.827 E24.65936
G1 X188.408 Y101.753 E24.71647
G1 X188.892 Y102.541 E24.76261
G1 X189.26 Y103.216 E24.80096
G1 X189.42 Y103.574 E24.82052
G1 X189.784 Y104.45 E24.86785
G1 X190.041 Y105.175 E24.90623
G1 X190.145 Y105.56 E24.92612
G1 X190.364 Y106.471 E24.97287
G1 X190.408 Y106.664 E24.98274
G1 X190.549 Y107.63 E25.03145
G1 X190.622 Y108.55 E25.07749
G1 X190.645 Y109.135 E25.1067
G1 X190.645 Y145.863 E26.93907
G1 X190.622 Y146.448 E26.96828
G1 X190.549 Y147.368 E27.01432
G1 X190.513 Y147.717 E27.03182
G1 X190.364 Y148.532 E27.07316
G1 X190.145 Y149.441 E27.1198
G1 X189.926 Y150.179 E27.15821
G1 X189.785 Y150.548 E27.17792
G1 X189.421 Y151.424 E27.22524
G1 X189.089 Y152.117 E27.26358
G1 X188.889 Y152.463 E27.28352
G1 X188.396 Y153.264 E27.33044
G1 X187.959 Y153.897 E27.36882
G1 X187.716 Y154.197 E27.38808
G1 X187.104 Y154.912 E27.43504
G1 X186.574 Y155.47 E27.47343
G1 X186.288 Y155.727 E27.49261
G1 X185.582 Y156.33 E27.53893
G1 X184.654 Y157.006 E27.59621
G1 X183.856 Y157.497 E27.64296
G1 X183.181 Y157.865 E27.68131
G1 X182.819 Y158.027 E27.7011
G1 X181.946 Y158.39 E27.74827
G1 X181.222 Y158.648 E27.78662
G1 X180.837 Y158.752 E27.80651
G1 X179.923 Y158.972 E27.85341
G1 X179.627 Y159.036 E27.86852
G1 X178.751 Y159.158 E27.91265
G1 X177.828 Y159.23 E27.95884
G1 X177.253 Y159.252 E27.98754
G1 X72.47 Y159.252 E33.21519
G1 X71.895 Y159.23 E33.2439
G1 X70.972 Y159.158 E33.29009
G1 X70.665 Y159.127 E33.30548
G1 X69.793 Y158.971 E33.34967
G1 X68.882 Y158.751 E33.39643
G1 X68.145 Y158.532 E33.43479
G1 X67.775 Y158.39 E33.45456
G1 X66.903 Y158.027 E33.50168
G1 X66.209 Y157.695 E33.54007
G1 X65.87 Y157.498 E33.55963
G1 X65.067 Y157.004 E33.60666
G1 X64.433 Y156.567 E33.64508
G1 X64.132 Y156.323 E33.66441
G1 X63.417 Y155.711 E33.71137
G1 X62.859 Y155.181 E33.74976
G1 X62.597 Y154.889 E33.76933
G1 X61.997 Y154.185 E33.81548
G1 X61.327 Y153.264 E33.8723
G1 X60.834 Y152.463 E33.91923
G1 X60.465 Y151.788 E33.95761
G1 X60.304 Y151.427 E33.97733
G1 X59.942 Y150.557 E34.02434
G1 X59.684 Y149.832 E34.06273
G1 X59.578 Y149.438 E34.08309
G1 X59.354 Y148.503 E34.13105
G1 X59.214 Y147.747 E34.16941
G1 X59.173 Y147.36 E34.18883
G1 X59.101 Y146.446 E34.23457
G1 X59.078 Y145.865 E34.26358
G1 X59.078 Y109.137 E36.09594
G1 X59.101 Y108.556 E36.12495
G1 X59.173 Y107.642 E36.17069
G1 X59.209 Y107.289 E36.1884
G1 X59.358 Y106.473 E36.22978
G1 X59.58 Y105.552 E36.27705
G1 X59.799 Y104.815 E36.3154
G1 X59.942 Y104.443 E36.33529
G1 X60.304 Y103.573 E36.3823
G1 X60.636 Y102.879 E36.42068
G1 X60.834 Y102.537 E36.4404
G1 X61.327 Y101.736 E36.48732
G1 X62.003 Y100.808 E36.5446
G1 X62.614 Y100.093 E36.59152
G1 X63.144 Y99.535 E36.62992
G1 X63.435 Y99.272 E36.64949
G1 X64.139 Y98.671 E36.69567
G1 X65.067 Y97.996 E36.75292
G0 F3600 X65.276 Y98.337
G1 F3000 X66.079 Y97.843 E36.79995
G1 X67.06 Y97.341 E36.85493
G1 X67.931 Y96.979 E36.90199
G1 X68.978 Y96.638 E36.95692
G1 X69.891 Y96.418 E37.00378
G1 X70.173 Y96.356 E37.01818
G1 X71.002 Y96.241 E37.05994
G1 X71.926 Y96.169 E37.10618
G1 X72.47 Y96.148 E37.13334
G1 X177.253 Y96.148 E42.36098
G1 X177.798 Y96.169 E42.38819
G1 X178.72 Y96.241 E42.43433
G1 X179.01 Y96.27 E42.44887
G1 X179.839 Y96.418 E42.49088
G1 X180.752 Y96.639 E42.53775
G1 X181.793 Y96.979 E42.59238
G1 X182.666 Y97.342 E42.63955
G1 X183.644 Y97.843 E42.69438
G1 X184.441 Y98.333 E42.74105
G1 X185.328 Y98.979 E42.7958
G1 X186.045 Y99.593 E42.84289
G1 X186.82 Y100.37 E42.89764
G1 X187.43 Y101.086 E42.94457
G1 X188.067 Y101.962 E42.99861
G1 X188.551 Y102.75 E43.04474
G1 X189.05 Y103.728 E43.09952
G1 X189.414 Y104.604 E43.14685
G1 X189.756 Y105.654 E43.20194
G1 X190.014 Y106.734 E43.25734
G1 X190.15 Y107.661 E43.30408
G1 X190.223 Y108.581 E43.35013
G1 X190.245 Y109.135 E43.37779
G1 X190.245 Y145.863 E45.21015
G1 X190.223 Y146.417 E45.23781
G1 X190.15 Y147.337 E45.28386
G1 X190.116 Y147.667 E45.30041
G1 X189.975 Y148.439 E45.33956
G1 X189.756 Y149.348 E45.38621
G1 X189.415 Y150.394 E45.4411
G1 X189.051 Y151.27 E45.48842
G1 X188.548 Y152.253 E45.54351
G1 X188.055 Y153.054 E45.59044
G1 X187.412 Y153.937 E45.64493
G1 X186.8 Y154.652 E45.69189
G1 X186.028 Y155.423 E45.74632
G1 X185.322 Y156.026 E45.79264
G1 X184.444 Y156.665 E45.84682
G1 X183.646 Y157.156 E45.89356
G1 X182.666 Y157.658 E45.9485
G1 X181.793 Y158.021 E45.99567
G1 X180.743 Y158.363 E46.05076
G1 X179.829 Y158.583 E46.09766
G1 X179.549 Y158.644 E46.11196
G1 X178.72 Y158.759 E46.15371
G1 X177.797 Y158.831 E46.1999
G1 X177.253 Y158.852 E46.22706
G1 X72.47 Y158.852 E51.45471
G1 X71.926 Y158.831 E51.48187
G1 X71.003 Y158.759 E51.52806
G1 X70.712 Y158.73 E51.54265
G1 X69.887 Y158.582 E51.58446
G1 X68.976 Y158.362 E51.63122
G1 X67.929 Y158.02 E51.68617
G1 X67.057 Y157.657 E51.73329
G1 X66.079 Y157.157 E51.78809
G1 X65.276 Y156.663 E51.83513
G1 X64.392 Y156.019 E51.8897
G1 X63.677 Y155.407 E51.93665
G1 X62.901 Y154.63 E51.99144
G1 X62.301 Y153.926 E52.03758
G1 X61.668 Y153.054 E52.09134
G1 X61.175 Y152.253 E52.13827
G1 X60.673 Y151.273 E52.1932
G1 X60.311 Y150.403 E52.24021
G1 X59.967 Y149.345 E52.29572
G1 X59.743 Y148.41 E52.34368
G1 X59.572 Y147.329 E52.39829
G1 X59.5 Y146.415 E52.44403
G1 X59.478 Y145.865 E52.47149
G1 X59.478 Y109.137 E54.30386
G1 X59.5 Y108.587 E54.33132
G1 X59.572 Y107.673 E54.37706
G1 X59.606 Y107.339 E54.39381
G1 X59.747 Y106.567 E54.43296
G1 X59.969 Y105.646 E54.48022
G1 X60.311 Y104.597 E54.53527
G1 X60.673 Y103.727 E54.58228
G1 X61.175 Y102.747 E54.63722
G1 X61.668 Y101.946 E54.68414
G1 X62.307 Y101.067 E54.73836
G1 X62.918 Y100.352 E54.78528
G1 X63.695 Y99.576 E54.84007
G1 X64.399 Y98.975 E54.88625
G1 X65.276 Y98.337 E54.94035
G0 F3600 X65.486 Y98.678
G1 F3000 X66.289 Y98.184 E54.98739
G1 X67.214 Y97.71 E55.03924
G1 X68.085 Y97.348 E55.0863
G1 X69.072 Y97.027 E55.13808
G1 X69.985 Y96.807 E55.18494
G1 X70.252 Y96.748 E55.19858
G1 X71.033 Y96.64 E55.23791
G1 X71.957 Y96.568 E55.28415
G1 X72.47 Y96.548 E55.30976
G1 X177.253 Y96.548 E60.53741
G1 X177.767 Y96.568 E60.56307
G1 X178.689 Y96.64 E60.60921
G1 X178.963 Y96.667 E60.62295
G1 X179.745 Y96.807 E60.66258
G1 X180.658 Y97.028 E60.70945
G1 X181.639 Y97.349 E60.76094
G1 X182.512 Y97.712 E60.80811
G1 X183.435 Y98.184 E60.85983
G1 X184.232 Y98.674 E60.90651
G1 X185.068 Y99.283 E60.95811
G1 X185.785 Y99.897 E61.0052
G1 X186.516 Y100.63 E61.05685
G1 X187.126 Y101.346 E61.10378
G1 X187.726 Y102.172 E61.15471
G1 X188.21 Y102.96 E61.20085
G1 X188.681 Y103.881 E61.25246
G1 X189.045 Y104.757 E61.29978
G1 X189.367 Y105.747 E61.35172
G1 X189.586 Y106.658 E61.39847
G1 X189.625 Y106.832 E61.40736
G1 X189.751 Y107.693 E61.45078
G1 X189.824 Y108.613 E61.49682
G1 X189.845 Y109.135 E61.52288
G1 X189.845 Y145.863 E63.35525
G1 X189.824 Y146.385 E63.38132
G1 X189.751 Y147.305 E63.42736
G1 X189.719 Y147.618 E63.44306
G1 X189.586 Y148.345 E63.47993
G1 X189.367 Y149.254 E63.52658
G1 X189.046 Y150.241 E63.57836
G1 X188.682 Y151.117 E63.62568
G1 X188.208 Y152.043 E63.67758
G1 X187.715 Y152.844 E63.72451
G1 X187.108 Y153.677 E63.77593
G1 X186.496 Y154.392 E63.82288
G1 X185.768 Y155.119 E63.87421
G1 X185.062 Y155.722 E63.92053
G1 X184.235 Y156.324 E63.97157
G1 X183.437 Y156.815 E64.01831
G1 X182.512 Y157.288 E64.07014
G1 X181.639 Y157.651 E64.11731
G1 X180.65 Y157.974 E64.16922
G1 X179.736 Y158.194 E64.21612
G1 X179.47 Y158.252 E64.2297
G1 X178.689 Y158.36 E64.26904
G1 X177.766 Y158.432 E64.31523
G1 X177.253 Y158.452 E64.34084
G1 X72.47 Y158.452 E69.56848
G1 X71.957 Y158.432 E69.5941
G1 X71.034 Y158.36 E69.64029
G1 X70.759 Y158.333 E69.65407
G1 X69.981 Y158.194 E69.6935
G1 X69.07 Y157.974 E69.74026
G1 X68.083 Y157.651 E69.79207
G1 X67.211 Y157.288 E69.83919
G1 X66.289 Y156.816 E69.89087
G1 X65.486 Y156.322 E69.9379
G1 X64.652 Y155.715 E69.98937
G1 X63.937 Y155.103 E70.03632
G1 X63.206 Y154.37 E70.08797
G1 X62.606 Y153.666 E70.13411
G1 X62.008 Y152.844 E70.18483
G1 X61.515 Y152.043 E70.23175
G1 X61.042 Y151.119 E70.28354
G1 X60.68 Y150.249 E70.33055
G1 X60.356 Y149.252 E70.38285
G1 X60.132 Y148.317 E70.43082
G1 X59.97 Y147.297 E70.48235
G1 X59.898 Y146.383 E70.52809
G1 X59.878 Y145.865 E70.55395
G1 X59.878 Y109.137 E72.38632
G1 X59.898 Y108.619 E72.41218
G1 X59.97 Y107.705 E72.45792
G1 X60.003 Y107.388 E72.47382
G1 X60.136 Y106.66 E72.51074
G1 X60.358 Y105.739 E72.55801
G1 X60.68 Y104.751 E72.60985
G1 X61.042 Y103.881 E72.65686
G1 X61.515 Y102.957 E72.70865
G1 X62.008 Y102.156 E72.75557
G1 X62.611 Y101.327 E72.80672
G1 X63.222 Y100.612 E72.85364
G1 X63.955 Y99.88 E72.90532
G1 X64.659 Y99.279 E72.9515
G1 X65.486 Y98.678 E73.00251
G0 F3600 X65.695 Y99.018
G1 F3000 X66.498 Y98.524 E73.04954
G1 X67.368 Y98.08 E73.09827
G1 X68.239 Y97.718 E73.14533
G1 X69.166 Y97.416 E73.19397
G1 X70.079 Y97.196 E73.24082
G1 X70.33 Y97.14 E73.25365
G1 X71.064 Y97.039 E73.29062
G1 X71.988 Y96.967 E73.33686
G1 X72.47 Y96.948 E73.36092
G1 X177.253 Y96.948 E78.58857
G1 X177.736 Y96.967 E78.61268
G1 X178.658 Y97.039 E78.65882
G1 X178.916 Y97.064 E78.67175
G1 X179.651 Y97.196 E78.70901
G1 X180.564 Y97.417 E78.75587
G1 X181.485 Y97.718 E78.80422
G1 X182.358 Y98.081 E78.85138
G1 X183.225 Y98.524 E78.89996
G1 X184.022 Y99.014 E78.94664
G1 X184.808 Y99.587 E78.99516
G1 X185.525 Y100.201 E79.04226
G1 X186.211 Y100.889 E79.09073
G1 X186.821 Y101.605 E79.13766
G1 X187.385 Y102.381 E79.18552
G1 X187.869 Y103.169 E79.23165
G1 X188.311 Y104.035 E79.28016
G1 X188.675 Y104.911 E79.32749
G1 X188.978 Y105.841 E79.37629
G1 X189.197 Y106.752 E79.42303
G1 X189.234 Y106.916 E79.43142
G1 X189.353 Y107.725 E79.47221
G1 X189.426 Y108.645 E79.51826
G1 X189.445 Y109.135 E79.54272
G1 X189.445 Y145.863 E81.37509
G1 X189.426 Y146.353 E81.39955
G1 X189.353 Y147.273 E81.4456
G1 X189.322 Y147.568 E81.4604
G1 X189.198 Y148.251 E81.49503
G1 X188.979 Y149.16 E81.54168
G1 X188.676 Y150.087 E81.59033
G1 X188.312 Y150.963 E81.63766
G1 X187.867 Y151.834 E81.68646
G1 X187.374 Y152.635 E81.73338
G1 X186.804 Y153.417 E81.78166
G1 X186.192 Y154.132 E81.82861
G1 X185.509 Y154.814 E81.87677
G1 X184.803 Y155.417 E81.92309
G1 X184.025 Y155.984 E81.97112
G1 X183.227 Y156.475 E82.01786
G1 X182.358 Y156.919 E82.06655
G1 X181.485 Y157.282 E82.11372
G1 X180.556 Y157.585 E82.16247
G1 X179.642 Y157.805 E82.20937
G1 X179.392 Y157.86 E82.22214
G1 X178.658 Y157.961 E82.2591
G1 X177.735 Y158.033 E82.30529
G1 X177.253 Y158.052 E82.32936
G1 X72.47 Y158.052 E87.557
G1 X71.988 Y158.033 E87.58107
G1 X71.065 Y157.961 E87.62726
G1 X70.806 Y157.936 E87.64024
G1 X70.075 Y157.805 E87.67729
G1 X69.164 Y157.585 E87.72405
G1 X68.236 Y157.282 E87.77275
G1 X67.364 Y156.919 E87.81987
G1 X66.498 Y156.476 E87.8684
G1 X65.695 Y155.982 E87.91544
G1 X64.912 Y155.411 E87.96379
G1 X64.197 Y154.799 E88.01074
G1 X63.51 Y154.111 E88.05925
G1 X62.91 Y153.407 E88.1054
